X:0893
M:C
L:1/8
Q:1/2=112
K:D
f|adfa gfed|(c/d/e) cA ceef| adfa      gfed|(c/d/e) eg fddf|
  adfa gfed|(c/d/e) cA ceef| afef      dAFD| GBAG      FDD|]

